app/dist/common/images/leo-units-each-consisting-of-one-class-a-ordinary-share-and-one-third-of-one-redeemable-warrant.svg

<svg height="18" viewBox="0 0 18 18" width="18" xmlns="http://www.w3.org/2000/svg" xmlns:xlink="http://www.w3.org/1999/xlink"><linearGradient id="a" gradientUnits="userSpaceOnUse" x1="3.35" x2="21.9" y1="3.12" y2="24.43"><stop offset="0" stop-color="#1a1e21"/><stop offset="1" stop-color="#06060a"/></linearGradient><path d="m0 0h18v18h-18z" fill="url(#a)"/><path d="m13.96 7.11-4.78-3.11-1.74.43v10.57l5.77-4.56.79-3.24c0-.03 0-.07-.04-.09zm-4.8 1.6-1.57-3.85v9.46l1.59-5.61zm3.84 1.69-5.36 4.24 1.66-5.84zm-.05-.18-3.63-1.57v-4.15l3.63 5.74zm.16-.02-3.7-5.88 4.43 2.89zm-3.94-1.9v-4.1l-1.56.34 1.56 3.77zm-2.04-3.64h-.03l-3.1 2.91v.01l1.46 2.36 1.64.54h.01v-5.84zm-2.88 3v.01l1.21 1.97h.02l.27-1.88zm1.36 2.16.26-1.84h.02l1.01 2.25v.01l-1.3-.42zm.18-2.21-1.5-.1s-.01 0 0 0l2.53-2.38v.01l-1.02 2.47zm1.17-2.39h.01v4.76h-.01l-1.04-2.28 1.04-2.47z" fill="#f5f5f5" fill-rule="evenodd"/></svg>

<!-- by TradingView --><svg width="18" height="18" viewBox="0 0 18 18" xmlns="http://www.w3.org/2000/svg"><path fill="url(#atgbl1cgf)" d="M0 0h18v18H0z"/><path fill-rule="evenodd" d="M13.96 7.11 9.18 4l-1.74.43V15l5.77-4.56L14 7.2c0-.03 0-.07-.04-.09Zm-4.8 1.6L7.59 4.86v9.46l1.59-5.61ZM13 10.4l-5.36 4.24L9.3 8.8l3.7 1.6Zm-.05-.18L9.32 8.65V4.5l3.63 5.74Zm.16-.02-3.7-5.88 4.43 2.89-.73 2.99Zm-3.94-1.9v-4.1l-1.56.34 1.56 3.77ZM7.13 4.66H7.1l-3.1 2.91v.01l1.46 2.36 1.64.54h.01V4.64ZM4.25 7.66v.01l1.21 1.97h.02l.27-1.88-1.5-.1Zm1.36 2.16.26-1.84h.02l1.01 2.25v.01L5.6 9.82Zm.18-2.21-1.5-.1s-.01 0 0 0l2.53-2.38v.01L5.8 7.61Zm1.17-2.39h.01v4.76h-.01L5.92 7.7l1.04-2.47Z" fill="#F5F5F5"/><defs><linearGradient id="atgbl1cgf" x1="3.35" y1="3.12" x2="21.9" y2="24.43" gradientUnits="userSpaceOnUse"><stop stop-color="#1A1E21"/><stop offset="1" stop-color="#06060A"/></linearGradient></defs></svg>
